assets/Artist/Medium-Light/Flat/artist_flat_medium-light.svg

<svg width="32" height="32" viewBox="0 0 32 32" fill="none" xmlns="http://www.w3.org/2000/svg">
<path d="M8.99996 18.0145C10.9025 16.4434 13.342 15.5 16 15.5C18.658 15.5 21.0974 16.4434 23 18.0145L25.1937 23.9782L23 30H8.99996L7.08008 23.9782L8.99996 18.0145Z" fill="#E6E6E6"/>
<path d="M16 20.4727C16.0019 21.8717 17.1812 22.9999 18.62 22.9999V21.3869C18.62 20.8294 18.433 20.3147 18.1171 19.8971C19.465 19.698 20.5 18.5711 20.5 17.2142C20.5 15.717 19.24 14.5 17.69 14.5H14.31C12.76 14.5 11.5 15.717 11.5 17.2142C11.5 18.5711 12.535 19.698 13.8829 19.8971C13.567 20.3147 13.38 20.8294 13.38 21.3869V22.9999C14.8188 22.9999 15.9981 21.8717 16 20.4727Z" fill="#F92F60"/>
<path d="M5.00018 26.5C4.98028 23.09 6.5822 20.03 8.99999 18V29.98L5.02008 30L5.00018 26.5Z" fill="#D3D3D3"/>
<path d="M23 30V18C25.44 20.0234 27 23.0785 27 26.4942V30H23Z" fill="#D3D3D3"/>
<path d="M4.91851 29.9999H14.5251L12.3751 24.0999C11.7387 22.3594 10.148 21.1618 8.3321 21.0151C8.2074 21.005 7.98505 21.0378 7.85941 21.0507C5.1349 21.332 2.82851 24.2399 3.93851 27.3099L4.91851 29.9999Z" fill="#FFCE7C"/>
<path d="M8.38502 21.02C8.24502 21.01 8.09502 21 7.95502 21C4.69502 21 2.42502 24.24 3.53502 27.31L4.51502 30H5.40502L4.42502 27.31C3.36502 24.39 5.37502 21.3 8.38502 21.02Z" fill="#E19747"/>
<path d="M8.24 25.24C8.92483 25.24 9.48 24.6848 9.48 24C9.48 23.3152 8.92483 22.76 8.24 22.76C7.55517 22.76 7 23.3152 7 24C7 24.6848 7.55517 25.24 8.24 25.24Z" fill="#F92F60"/>
<path d="M11.24 28.24C11.9248 28.24 12.48 27.6848 12.48 27C12.48 26.3152 11.9248 25.76 11.24 25.76C10.5552 25.76 10 26.3152 10 27C10 27.6848 10.5552 28.24 11.24 28.24Z" fill="#5092FF"/>
<path d="M7.24 29.1299C7.92483 29.1299 8.48 28.5747 8.48 27.8899C8.48 27.2051 7.92483 26.6499 7.24 26.6499C6.55517 26.6499 6 27.2051 6 27.8899C6 28.5747 6.55517 29.1299 7.24 29.1299Z" fill="#86D72F"/>
<path d="M27.5 23.1001C28.05 23.1001 28.5 23.5446 28.5 24.0879V26.3501H26.5V24.0879C26.5 23.5446 26.94 23.1001 27.5 23.1001Z" fill="#E4B29A"/>
<path d="M25.2121 20.75C24.9708 22.1148 24.9342 23.5141 25.1083 24.9L25.6583 29.27C25.6983 29.55 25.9383 29.77 26.2183 29.77C26.5083 29.77 26.7483 29.56 26.7783 29.27L27.3283 24.9C27.4959 23.5126 27.4613 22.1162 27.2215 20.75L26.1992 20.3555L25.2121 20.75Z" fill="#8C5543"/>
<path d="M27.2266 20.75C27.1066 20.08 27.01 19.41 26.8 18.76H25.6C25.38 19.41 25.327 20.08 25.207 20.75H27.2266Z" fill="#E6E6E6"/>
<path d="M24.6841 16.75L25.3867 16.5469C25.6867 16.5469 26.0703 16.9852 26.0703 17.2852C26.0703 17.7252 26.1967 17.7969 26.6367 17.7969C27.0592 17.8065 27.4369 17.7973 27.481 17.391C27.4837 17.427 27.485 17.4635 27.485 17.5C27.485 18.33 26.815 19 25.985 19C25.155 19 24.485 18.33 24.485 17.5C24.485 17.25 24.545 17.02 24.655 16.81C24.6645 16.7898 24.6743 16.7698 24.6841 16.75Z" fill="#F3AD61"/>
<path d="M27.6549 15.07C27.5949 15.02 27.5249 15 27.4549 15C26.2449 15.08 25.2249 15.65 24.6849 16.75H25.3549C25.6549 16.75 25.8949 16.99 25.8949 17.29C25.8949 17.73 26.2349 18.11 26.6749 18.11C27.1149 18.12 27.4649 17.77 27.4849 17.34C27.4849 17.29 27.4749 17.24 27.4649 17.19V17.18C27.3149 16.53 27.4149 15.98 27.7249 15.43C27.7849 15.31 27.7549 15.16 27.6549 15.07Z" fill="#5092FF"/>
<path d="M24.7018 24.74C24.3284 24.74 24.0096 25.06 24.0005 25.47C23.9913 25.74 24.1189 25.98 24.3101 26.12C24.128 26.25 24.0005 26.48 24.0005 26.74C24.0005 27 24.1189 27.23 24.3101 27.36C24.128 27.49 24.0005 27.72 24.0005 27.98C24.0005 28.24 24.1189 28.47 24.3101 28.6C24.1189 28.74 24.0005 28.98 24.0005 29.25C24.0096 29.66 24.3284 29.98 24.7018 29.98H27.7076C28.1448 29.98 28.5 29.59 28.5 29.11V25.6C28.5 25.12 28.1448 24.73 27.7076 24.73H24.7018V24.74Z" fill="#EEBFAA"/>
<path d="M16 18.5C14.9 18.5 14 17.5924 14 16.4832V14.5168C14 13.4076 14.9 12.5 16 12.5C17.1 12.5 18 13.4076 18 14.5168V16.4832C18 17.5924 17.1 18.5 16 18.5Z" fill="#E4B29A"/>
<path d="M20.9077 4.2299C21.4224 4.4099 21.8875 4.7699 22.1845 5.2899C22.6496 6.1099 22.5804 7.0999 22.0657 7.8399C21.8875 8.0999 21.7886 8.4099 21.7886 8.7199V12.8899C21.7886 13.8199 21.2046 14.6499 20.3336 14.9499L18.463 15.5999V8.1699C18.3244 8.0199 18.1958 7.8599 18.0869 7.6699C17.9186 7.3799 17.8296 7.0699 17.79 6.7499C17.7009 6.7599 17.6118 6.7699 17.5128 6.7699C16.9289 6.7699 16.4043 6.5499 15.9886 6.1999C15.5828 6.5599 15.0484 6.7699 14.4644 6.7699C14.3753 6.7699 14.2764 6.7599 14.1873 6.7499C14.1576 7.0599 14.0586 7.3799 13.8904 7.6699C13.7815 7.8599 13.6627 8.0299 13.5143 8.1699V15.5899L11.6436 14.9399C10.7727 14.6299 10.1887 13.8099 10.1887 12.8799V8.7099C10.1887 8.3999 10.0897 8.0899 9.92147 7.8299C9.43649 7.1199 9.34742 6.1599 9.77301 5.3599C10.06 4.8099 10.5351 4.4199 11.0795 4.2299L19.5418 3.1499C19.8487 3.6599 20.3435 4.0399 20.9077 4.2299Z" fill="#FFF9BA"/>
<path d="M12.75 10.625C12.75 11.5225 12.0225 12.25 11.125 12.25C10.2275 12.25 9.5 11.5225 9.5 10.625C9.5 9.72754 10.2275 9 11.125 9C12.0225 9 12.75 9.72754 12.75 10.625Z" fill="#E4B29A"/>
<path d="M22.75 10.625C22.75 11.5225 22.0225 12.25 21.125 12.25C20.2275 12.25 19.5 11.5225 19.5 10.625C19.5 9.72754 20.2275 9 21.125 9C22.0225 9 22.75 9.72754 22.75 10.625Z" fill="#E4B29A"/>
<path d="M17.1736 3H14.8267C12.1981 3 10.2892 5.04731 10.5187 7.73692L10.9151 13.5477C11.1967 15.5247 12.9491 17 15.0144 17H16.0054H16.9963C19.072 17 20.814 15.5247 21.0956 13.5477L21.4712 7.73692C21.7632 5.13763 19.8022 3 17.1736 3Z" fill="#EEBFAA"/>
<path d="M12.0073 10.28C12.1573 9.65995 12.7173 9.19995 13.3873 9.19995C14.0873 9.19995 14.6673 9.68995 14.7873 10.35C14.8173 10.5 14.7073 10.63 14.5573 10.63H12.2773C12.0973 10.63 11.9673 10.45 12.0073 10.28Z" fill="white"/>
<path d="M19.6573 10.28C19.5073 9.65995 18.9473 9.19995 18.2773 9.19995C17.5873 9.19995 17.0073 9.68995 16.8773 10.35C16.8473 10.5 16.9573 10.63 17.1073 10.63H19.3873C19.5673 10.63 19.6973 10.46 19.6573 10.28Z" fill="white"/>
<path d="M12.6874 10.39C12.6874 9.88998 13.0974 9.47998 13.5974 9.47998C14.1074 9.47998 14.5174 9.88998 14.5074 10.39C14.5074 10.47 14.4974 10.55 14.4774 10.63H12.7174C12.6974 10.55 12.6874 10.47 12.6874 10.39Z" fill="#7D4533"/>
<path d="M18.9773 10.39C18.9773 9.88998 18.5673 9.47998 18.0673 9.47998C17.5673 9.47998 17.1573 9.88998 17.1573 10.39C17.1573 10.47 17.1673 10.55 17.1873 10.63H18.9473C18.9673 10.55 18.9773 10.47 18.9773 10.39Z" fill="#7D4533"/>
<path d="M13.6073 9.87012C13.8973 9.87012 14.1273 10.1001 14.1273 10.3901C14.1273 10.4801 14.0973 10.5601 14.0673 10.6301H13.1473C13.1073 10.5601 13.0873 10.4801 13.0873 10.3901C13.0873 10.1001 13.3173 9.87012 13.6073 9.87012Z" fill="black"/>
<path d="M18.0674 9.87012C17.7774 9.87012 17.5474 10.1001 17.5474 10.3901C17.5474 10.4801 17.5674 10.5601 17.6074 10.6301H18.5274C18.5674 10.5601 18.5874 10.4801 18.5874 10.3901C18.5874 10.1001 18.3574 9.87012 18.0674 9.87012Z" fill="black"/>
<path d="M12.1433 8.01409C12.013 8.11566 11.9897 8.30363 12.0913 8.43394C12.1926 8.56391 12.3798 8.58743 12.5101 8.48678L12.5126 8.48496C12.5155 8.48277 12.521 8.47883 12.5288 8.47342C12.5444 8.46259 12.5695 8.44593 12.6033 8.42562C12.6712 8.38492 12.7733 8.33013 12.9046 8.27827C13.1673 8.17454 13.542 8.08417 13.9923 8.13714C14.1564 8.15644 14.305 8.03908 14.3243 7.87499C14.3436 7.71091 14.2263 7.56224 14.0622 7.54294C13.4925 7.47591 13.0172 7.59053 12.6848 7.7218C12.5186 7.78745 12.3871 7.85765 12.2955 7.91258C12.2497 7.94009 12.2137 7.96389 12.1881 7.98157L12.1433 8.01409Z" fill="#A56953"/>
<path d="M19.5733 8.43394C19.6748 8.30363 19.6513 8.1155 19.521 8.01393L19.5192 8.0125L19.5161 8.01014L19.5069 8.00327C19.4994 7.99775 19.4892 7.99042 19.4764 7.98157C19.4509 7.96389 19.4149 7.94009 19.369 7.91258C19.2775 7.85765 19.1459 7.78745 18.9797 7.7218C18.6473 7.59053 18.1721 7.47591 17.6024 7.54294C17.4383 7.56224 17.3209 7.71091 17.3402 7.87499C17.3595 8.03908 17.5082 8.15644 17.6723 8.13714C18.1225 8.08417 18.4973 8.17454 18.7599 8.27827C18.8912 8.33013 18.9934 8.38492 19.0612 8.42562C19.0951 8.44593 19.1201 8.46259 19.1358 8.47342C19.1436 8.47883 19.149 8.48277 19.152 8.48496L19.1545 8.48687C19.2848 8.58741 19.472 8.56387 19.5733 8.43394Z" fill="#A56953"/>
<path d="M13.4473 10.0301C13.4473 10.1185 13.3757 10.1901 13.2873 10.1901C13.199 10.1901 13.1273 10.1185 13.1273 10.0301C13.1273 9.94175 13.199 9.87012 13.2873 9.87012C13.3757 9.87012 13.4473 9.94175 13.4473 10.0301Z" fill="white"/>
<path d="M17.9473 10.0301C17.9473 10.1185 17.8757 10.1901 17.7873 10.1901C17.699 10.1901 17.6273 10.1185 17.6273 10.0301C17.6273 9.94175 17.699 9.87012 17.7873 9.87012C17.8757 9.87012 17.9473 9.94175 17.9473 10.0301Z" fill="white"/>
<path d="M15.6446 10.3149L15.1488 12.0533C15.0459 12.4092 15.2891 12.7751 15.6352 12.7751H16.3648C16.7109 12.7751 16.9541 12.4092 16.8512 12.0533L16.3554 10.3149C16.2526 9.92857 15.7568 9.92857 15.6446 10.3149Z" fill="#D19479"/>
<path d="M16.0005 13.7059C15.45 13.7059 14.9301 13.5671 14.4918 13.3215C14.3389 13.2361 14.186 13.4176 14.2777 13.5671C14.6447 14.1544 15.2767 14.5496 16.0005 14.5496C16.7243 14.5496 17.3563 14.1544 17.7233 13.5671C17.8151 13.4176 17.652 13.2467 17.5093 13.3215C17.0709 13.5671 16.551 13.7059 16.0005 13.7059Z" fill="#990838"/>
<path d="M8.995 5.72C8.995 5.27 9.225 4.86 9.615 4.63L9.88499 4.47C12.545 2.85 15.605 2 18.725 2C21.085 2 22.995 3.91 22.995 6.27C22.995 6.67 22.665 7 22.265 7H10.275C9.565 7 8.995 6.43 8.995 5.72Z" fill="#212121"/>
</svg>

<svg xmlns="http://www.w3.org/2000/svg" width="32" height="32" fill="none"><path fill="#E6E6E6" d="M9 18.015a10.957 10.957 0 0 1 7-2.515c2.658 0 5.097.943 7 2.515l2.194 5.963L23 30H9l-1.92-6.022L9 18.015Z"/><path fill="#F92F60" d="M16 20.473C16.002 21.872 17.181 23 18.62 23v-1.613a2.46 2.46 0 0 0-.503-1.49c1.348-.199 2.383-1.326 2.383-2.683 0-1.497-1.26-2.714-2.81-2.714h-3.38c-1.55 0-2.81 1.217-2.81 2.714 0 1.357 1.035 2.484 2.383 2.683a2.46 2.46 0 0 0-.503 1.49V23c1.439 0 2.618-1.128 2.62-2.527Z"/><path fill="#D3D3D3" d="M5 26.5c-.02-3.41 1.582-6.47 4-8.5v11.98L5.02 30 5 26.5ZM23 30V18c2.44 2.023 4 5.078 4 8.494V30h-4Z"/><path fill="#FFCE7C" d="M4.919 30h9.606l-2.15-5.9a4.72 4.72 0 0 0-4.043-3.085c-.125-.01-.347.023-.473.036-2.724.281-5.03 3.189-3.92 6.259l.98 2.69Z"/><path fill="#E19747" d="M8.385 21.02c-.14-.01-.29-.02-.43-.02-3.26 0-5.53 3.24-4.42 6.31l.98 2.69h.89l-.98-2.69c-1.06-2.92.95-6.01 3.96-6.29Z"/><path fill="#F92F60" d="M8.24 25.24a1.24 1.24 0 1 0 0-2.48 1.24 1.24 0 0 0 0 2.48Z"/><path fill="#5092FF" d="M11.24 28.24a1.24 1.24 0 1 0 0-2.48 1.24 1.24 0 0 0 0 2.48Z"/><path fill="#86D72F" d="M7.24 29.13a1.24 1.24 0 1 0 0-2.48 1.24 1.24 0 0 0 0 2.48Z"/><path fill="#E4B29A" d="M27.5 23.1c.55 0 1 .445 1 .988v2.262h-2v-2.262a.99.99 0 0 1 1-.988Z"/><path fill="#8C5543" d="M25.212 20.75a13.893 13.893 0 0 0-.104 4.15l.55 4.37c.04.28.28.5.56.5.29 0 .53-.21.56-.5l.55-4.37a14.163 14.163 0 0 0-.107-4.15l-1.022-.395-.987.395Z"/><path fill="#E6E6E6" d="M27.227 20.75c-.12-.67-.217-1.34-.427-1.99h-1.2c-.22.65-.273 1.32-.393 1.99h2.02Z"/><path fill="#F3AD61" d="m24.684 16.75.703-.203c.3 0 .683.438.683.738 0 .44.127.512.567.512.422.01.8 0 .844-.406A1.498 1.498 0 0 1 25.985 19a1.498 1.498 0 0 1-1.33-2.19l.03-.06Z"/><path fill="#5092FF" d="M27.655 15.07a.306.306 0 0 0-.2-.07c-1.21.08-2.23.65-2.77 1.75h.67c.3 0 .54.24.54.54 0 .44.34.82.78.82.44.01.79-.34.81-.77 0-.05-.01-.1-.02-.15v-.01c-.15-.65-.05-1.2.26-1.75.06-.12.03-.27-.07-.36Z"/><path fill="#EEBFAA" d="M24.702 24.74c-.374 0-.692.32-.702.73-.009.27.119.51.31.65a.765.765 0 0 0-.31.62c0 .26.119.49.31.62a.765.765 0 0 0-.31.62c0 .26.119.49.31.62a.798.798 0 0 0-.31.65c.01.41.328.73.702.73h3.006c.437 0 .792-.39.792-.87V25.6c0-.48-.355-.87-.792-.87h-3.006v.01Z"/><path fill="#E4B29A" d="M16 18.5c-1.1 0-2-.908-2-2.017v-1.966c0-1.11.9-2.017 2-2.017s2 .908 2 2.017v1.966c0 1.11-.9 2.017-2 2.017Z"/><path fill="#FFF9BA" d="M20.908 4.23c.514.18.98.54 1.276 1.06.466.82.396 1.81-.118 2.55-.178.26-.277.57-.277.88v4.17c0 .93-.584 1.76-1.455 2.06l-1.871.65V8.17a2.39 2.39 0 0 1-.673-1.42c-.09.01-.178.02-.277.02-.584 0-1.109-.22-1.524-.57a2.283 2.283 0 0 1-1.802.55c-.03.31-.128.63-.297.92-.109.19-.227.36-.376.5v7.42l-1.87-.65a2.184 2.184 0 0 1-1.455-2.06V8.71c0-.31-.1-.62-.268-.88a2.403 2.403 0 0 1-.148-2.47c.287-.55.762-.94 1.306-1.13l8.463-1.08c.307.51.801.89 1.366 1.08Z"/><path fill="#E4B29A" d="M12.75 10.625a1.625 1.625 0 1 1-3.25 0 1.625 1.625 0 0 1 3.25 0ZM22.75 10.625a1.625 1.625 0 1 1-3.25 0 1.625 1.625 0 0 1 3.25 0Z"/><path fill="#EEBFAA" d="M17.174 3h-2.347c-2.629 0-4.538 2.047-4.308 4.737l.396 5.81c.282 1.978 2.034 3.453 4.1 3.453H16.995c2.076 0 3.818-1.475 4.1-3.452l.375-5.811C21.763 5.137 19.802 3 17.174 3Z"/><path fill="#fff" d="M12.007 10.28c.15-.62.71-1.08 1.38-1.08.7 0 1.28.49 1.4 1.15a.23.23 0 0 1-.23.28h-2.28c-.18 0-.31-.18-.27-.35ZM19.657 10.28c-.15-.62-.71-1.08-1.38-1.08-.69 0-1.27.49-1.4 1.15-.03.15.08.28.23.28h2.28c.18 0 .31-.17.27-.35Z"/><path fill="#7D4533" d="M12.687 10.39c0-.5.41-.91.91-.91a.9.9 0 0 1 .91.91c0 .08-.01.16-.03.24h-1.76a.986.986 0 0 1-.03-.24ZM18.977 10.39c0-.5-.41-.91-.91-.91a.913.913 0 0 0-.88 1.15h1.76c.02-.08.03-.16.03-.24Z"/><path fill="#000" d="M13.607 9.87a.516.516 0 0 1 .46.76h-.92a.516.516 0 0 1 .46-.76ZM18.067 9.87a.516.516 0 0 0-.46.76h.92a.516.516 0 0 0-.46-.76Z"/><path fill="#A56953" d="M12.143 8.014a.3.3 0 0 0 .367.473l.003-.002a2.067 2.067 0 0 1 .392-.207 2.24 2.24 0 0 1 1.087-.14.3.3 0 1 0 .07-.595 2.838 2.838 0 0 0-1.766.37 2.017 2.017 0 0 0-.108.069l-.045.032ZM19.573 8.434a.3.3 0 0 0-.052-.42l-.002-.002-.003-.002-.01-.007a1.28 1.28 0 0 0-.137-.09 2.837 2.837 0 0 0-1.767-.37.3.3 0 1 0 .07.594 2.239 2.239 0 0 1 1.39.289 1.382 1.382 0 0 1 .09.059l.002.002a.3.3 0 0 0 .42-.053Z"/><path fill="#fff" d="M13.447 10.03a.16.16 0 1 1-.32 0 .16.16 0 0 1 .32 0ZM17.947 10.03a.16.16 0 1 1-.32 0 .16.16 0 0 1 .32 0Z"/><path fill="#D19479" d="m15.645 10.315-.496 1.738c-.103.356.14.722.486.722h.73c.346 0 .59-.366.486-.722l-.496-1.738c-.102-.386-.598-.386-.71 0Z"/><path fill="#990838" d="M16 13.706a3.09 3.09 0 0 1-1.508-.384c-.153-.086-.306.096-.214.245.367.587.999.983 1.722.983.724 0 1.356-.396 1.723-.983.092-.15-.071-.32-.214-.245a3.09 3.09 0 0 1-1.509.384Z"/><path fill="#212121" d="M8.995 5.72c0-.45.23-.86.62-1.09l.27-.16c2.66-1.62 5.72-2.47 8.84-2.47 2.36 0 4.27 1.91 4.27 4.27 0 .4-.33.73-.73.73h-11.99c-.71 0-1.28-.57-1.28-1.28Z"/></svg>
